X: 028
T: Nineteenth of May
B: 204 Favourite Country Dances
N: Published by Straight & Skillern, London ca.1775
F: http://imslp.org/wiki/204_Favourite_Country_Dances_(Various) p.14 #28
Z: 2014 John Chambers <jc:trillian.mit.edu>
M: 6/8
L: 1/8
K: G
% - - - - - - - - - - - - - - - - - - - - - - - - -
|:\
G2G B/c/dB | cec A2c | BAG F2G | AFD D3 |\
G2G B/c/dB | cec A2c | BcB AGF | GDB, G,3 :|
|:\
d2d dcd | e2f g3 | cdc BcB | ABc B2G |\
d2d dcd | e2f g3 | cdc BcB | AGF G3 :|
% - - - - - - - - - - - - - - - - - - - - - - - - -
%%begintext align
%% Foot it all 4 & change sides .| the same
%% back again :| lead down 1 Cu. up again and
%% cast off .|. hands round all six :|:
%%endtext

%%sep 1 1 500
%%sep 1 1 500
